; generated by PrusaSlicer 2.9.1 on 2026-05-31 at 00:37:30 UTC


;
;
; 

; external perimeters extrusion width = 0.45mm
; perimeters extrusion width = 0.45mm
; infill extrusion width = 0.45mm
; solid infill extrusion width = 0.45mm
; top infill extrusion width = 0.40mm
; support material extrusion width = 0.35mm
; first layer extrusion width = 0.42mm

M73 P0 R19
M73 Q0 S20
M201 X1000 Y1000 Z200 E5000 ; sets maximum accelerations, mm/sec^2
M203 X200 Y200 Z12 E120 ; sets maximum feedrates, mm / sec
M204 S1250 T1250 ; sets acceleration (S) and retract acceleration (R), mm/sec^2
M205 X8.00 Y8.00 Z0.40 E4.50 ; sets the jerk limits, mm/sec
M205 S0 T0 ; sets the minimum extruding and travel feed rate, mm/sec

; printing object Body1.stl id:0 copy 0
; stop printing object Body1.stl id:0 copy 0

;TYPE:Custom
M862.3 P "MK3S" ; printer model check
M862.1 P0.4 ; nozzle diameter check
M115 U3.14.1 ; tell printer latest fw version
G90 ; use absolute coordinates
M83 ; extruder relative mode
M104 S215 ; set extruder temp
M140 S60 ; set bed temp
M190 S60 ; wait for bed temp
M109 S215 ; wait for extruder temp
G28 W ; home all without mesh bed level
G80 X103.275 Y85.275 W43.45 H43.45 ; mesh bed levelling

G1 Z0.2 F720
G1 Y-3 F1000 ; go outside print area
G92 E0
G1 X60 E9 F1000 ; intro line
G1 X100 E12.5 F1000 ; intro line
M73 Q0 S19

G92 E0
M221 S95

; Don't change E values below. Excessive value can damage the printer.
M907 E430 ; set extruder motor current
G21 ; set units to millimeters
G90 ; use absolute coordinates
M83 ; use relative distances for extrusion

M900 K0.05 ; Filament gcode LA 1.5
M900 K30 ; Filament gcode LA 1.0




M107
;LAYER_CHANGE
;Z:0.2
;HEIGHT:0.2
G1 E-.8 F2100
G1 Z.6 F720
G1 X107.185 Y90.669 F10800
G1 Z.2 F720
G1 E.8 F2100
M204 S800
;TYPE:Skirt/Brim
;WIDTH:0.42
G1 F1200
G1 X108.091 Y89.713 E.0413
G1 X109.086 Y88.835 E.04161
G1 X110.512 Y87.822 E.05484
G1 X111.275 Y87.375 E.02773
G1 X112.358 Y86.839 E.03789
G1 X114.496 Y86.08 E.07113
G1 X116.462 Y85.686 E.06287
G1 X118.23 Y85.564 E.05557
G1 X131.763 Y85.563 E.42432
G1 X132.943 Y85.62 E.03704
G1 X135.293 Y86.023 E.07476
G1 X137.281 Y86.685 E.0657
G1 X139.434 Y87.787 E.07583
G1 X141.31 Y89.167 E.07302
G1 X142.803 Y90.655 E.06609
G1 X143.558 Y91.598 E.03788
G1 X144.281 Y92.677 E.04072
G1 X144.87 Y93.742 E.03816
G1 X145.752 Y95.919 E.07365
G1 X146.229 Y97.896 E.06377
G1 X146.427 Y99.788 E.05965
G1 X146.426 Y114.229 E.45279
G1 X146.232 Y116.09 E.05867
G1 X145.783 Y117.982 E.06097
G1 X145.114 Y119.747 E.05918
G1 X144.565 Y120.835 E.03821
G1 X143.52 Y122.454 E.06042
G1 X142.727 Y123.433 E.0395
G1 X141.409 Y124.747 E.05835
G1 X139.925 Y125.895 E.05883
G1 X138.826 Y126.57 E.04044
G1 X137.102 Y127.389 E.05984
G1 X135.334 Y127.966 E.05831
G1 X134.182 Y128.216 E.03696
G1 X132.946 Y128.379 E.03909
G1 X131.671 Y128.439 E.04002
G1 X117.64 Y128.42 E.43993
G1 X115.868 Y128.225 E.0559
M73 P1 R19
M73 Q1 S19
G1 X114.139 Y127.82 E.05568
G1 X112.894 Y127.387 E.04133
G1 X111.751 Y126.875 E.03927
G1 X110.491 Y126.165 E.04535
G1 X108.618 Y124.771 E.07321
G1 X107.697 Y123.892 E.03992
G1 X106.762 Y122.82 E.0446
G1 X106.077 Y121.885 E.03634
G1 X105.153 Y120.302 E.05747
G1 X104.628 Y119.143 E.03989
G1 X104.24 Y118.055 E.03622
G1 X103.867 Y116.616 E.04661
G1 X103.614 Y114.865 E.05547
G1 X103.561 Y113.671 E.03747
G1 X103.575 Y99.733 E.43702
G1 X103.762 Y97.946 E.05634
G1 X103.925 Y97.118 E.02646
G1 X104.616 Y94.887 E.07323
G1 X105.125 Y93.751 E.03903
G1 X105.832 Y92.495 E.04519
G1 X107.149 Y90.717 E.06938
M204 S1000
G1 X107.451 Y90.941 F10800
M204 S800
G1 F1200
G1 X107.474 Y90.911 E.00119
G1 X108.359 Y89.979 E.0403
G1 X109.321 Y89.131 E.04021
G1 X110.718 Y88.137 E.05376
G1 X111.448 Y87.71 E.02652
G1 X112.505 Y87.186 E.03699
G1 X114.602 Y86.442 E.06977
G1 X116.519 Y86.058 E.0613
G1 X118.242 Y85.94 E.05415
G1 X131.75 Y85.94 E.42353
G1 X134.062 Y86.146 E.07278
G1 X136.312 Y86.721 E.07281
G1 X138.223 Y87.535 E.06513
G1 X140.197 Y88.759 E.07283
G1 X141.708 Y90.044 E.06219
G1 X143.259 Y91.828 E.07412
G1 X143.955 Y92.867 E.03921
G1 X145.017 Y94.985 E.07429
G1 X145.626 Y96.86 E.06181
G1 X145.856 Y97.952 E.03499
G1 X146.05 Y99.807 E.05848
G1 X146.049 Y114.222 E.45197
G1 X145.859 Y116.034 E.05713
G1 X145.626 Y117.139 E.03541
G1 X144.774 Y119.583 E.08115
G1 X144.239 Y120.645 E.03728
G1 X143.222 Y122.222 E.05884
G1 X141.701 Y123.962 E.07246
G1 X140.596 Y124.935 E.04616
G1 X138.636 Y126.245 E.07392
G1 X137.64 Y126.748 E.03499
G1 X135.929 Y127.404 E.05746
G1 X134.11 Y127.846 E.05869
G1 X132.905 Y128.004 E.03811
G1 X131.668 Y128.061 E.03883
G1 X117.664 Y128.044 E.43909
G1 X115.937 Y127.854 E.05448
G1 X114.242 Y127.457 E.05458
G1 X113.026 Y127.033 E.04038
G1 X111.911 Y126.533 E.03831
G1 X110.699 Y125.85 E.04362
G1 X108.861 Y124.483 E.07182
G1 X107.97 Y123.632 E.03863
G1 X107.063 Y122.592 E.04327
G1 X106.392 Y121.677 E.03558
G1 X105.493 Y120.139 E.05586
G1 X104.597 Y117.935 E.0746
G1 X104.238 Y116.547 E.04495
G1 X103.989 Y114.83 E.0544
G1 X103.939 Y113.667 E.0365
G1 X103.952 Y99.753 E.43626
G1 X104.291 Y97.209 E.08047
G1 X104.969 Y95.02 E.07185
G1 X105.467 Y93.911 E.03812
G1 X106.147 Y92.702 E.04349
G1 X107.416 Y90.989 E.06684
M204 S1000
G1 X107.707 Y91.223 F10800
M204 S800
G1 F1200
G1 X107.764 Y91.152 E.00285
G1 X108.615 Y90.256 E.03875
G1 X109.555 Y89.426 E.03932
G1 X111.622 Y88.045 E.07794
G1 X112.652 Y87.533 E.03606
G1 X114.708 Y86.803 E.06841
G1 X116.575 Y86.431 E.05969
G1 X118.254 Y86.317 E.05277
G1 X132.861 Y86.37 E.458
G1 X135.106 Y86.754 E.07141
G1 X136.978 Y87.375 E.06184
G1 X139.036 Y88.428 E.07248
G1 X140.828 Y89.747 E.06977
G1 X142.234 Y91.15 E.06228
G1 X143.63 Y93.057 E.0741
G1 X144.189 Y94.066 E.03617
M73 Q2 S19
G1 X145.037 Y96.16 E.07084
G1 X145.484 Y98.008 E.05961
G1 X145.673 Y99.826 E.05731
G1 X145.672 Y114.216 E.45119
M73 P2 R19
G1 X145.486 Y115.977 E.05552
G1 X145.067 Y117.744 E.05694
G1 X144.435 Y119.42 E.05616
G1 X143.913 Y120.455 E.03635
G1 X142.925 Y121.99 E.05724
G1 X142.15 Y122.946 E.03859
G1 X140.911 Y124.181 E.05485
G1 X139.516 Y125.261 E.05532
G1 X138.445 Y125.919 E.03941
G1 X136.838 Y126.682 E.05578
G1 X135.163 Y127.232 E.05528
G1 X134.038 Y127.476 E.03609
G1 X132.864 Y127.629 E.03712
G1 X131.664 Y127.684 E.03766
G1 X117.688 Y127.668 E.43821
G1 X116.005 Y127.483 E.05309
G1 X114.344 Y127.094 E.05349
G1 X113.158 Y126.68 E.03939
G1 X111.495 Y125.886 E.05778
G1 X109.996 Y124.914 E.05602
G1 X109.104 Y124.194 E.03594
G1 X107.793 Y122.881 E.05818
G1 X106.707 Y121.469 E.05585
G1 X105.834 Y119.977 E.0542
G1 X105.321 Y118.846 E.03894
G1 X104.766 Y117.154 E.05583
G1 X104.445 Y115.52 E.05221
G1 X104.316 Y113.663 E.05837
G1 X104.375 Y99.094 E.4568
G1 X104.657 Y97.3 E.05694
G1 X104.944 Y96.218 E.0351
G1 X105.321 Y95.153 E.03542
G1 X106.114 Y93.496 E.0576
G1 X107.053 Y92.041 E.0543
G1 X107.67 Y91.269 E.03099
M204 S1000
G1 X107.986 Y91.546 F10800
M204 S800
G1 F1200
G1 X108.882 Y90.522 E.04266
G1 X110.309 Y89.324 E.05842
G1 X111.795 Y88.379 E.05522
G1 X113.785 Y87.486 E.06839
G1 X115.576 Y86.983 E.05833
G1 X116.632 Y86.804 E.03358
G1 X118.266 Y86.694 E.05135
G1 X131.732 Y86.694 E.42222
G1 X132.836 Y86.747 E.03466
G1 X135.02 Y87.121 E.06947
G1 X136.826 Y87.721 E.05967
G1 X137.865 Y88.199 E.03586
G1 X138.844 Y88.752 E.03525
G1 X140.587 Y90.037 E.0679
G1 X141.955 Y91.403 E.06062
G1 X142.66 Y92.286 E.03543
G1 X143.849 Y94.229 E.07142
G1 X144.313 Y95.254 E.03528
G1 X144.891 Y97.029 E.05853
G1 X145.111 Y98.065 E.03321
G1 X145.297 Y99.845 E.05611
G1 X145.295 Y114.209 E.45037
G1 X145.113 Y115.921 E.05398
G1 X144.709 Y117.626 E.05494
G1 X144.095 Y119.256 E.05461
G1 X143.587 Y120.266 E.03545
G1 X142.628 Y121.758 E.05561
G1 X141.164 Y123.433 E.06975
G1 X140.139 Y124.334 E.04279
G1 X138.254 Y125.594 E.07109
G1 X137.331 Y126.06 E.03242
G1 X135.077 Y126.865 E.07504
G1 X132.823 Y127.254 E.07172
G1 X131.66 Y127.307 E.0365
G1 X117.713 Y127.291 E.4373
G1 X115.394 Y126.978 E.07337
G1 X113.29 Y126.327 E.06906
G1 X112.243 Y125.856 E.036
G1 X111.114 Y125.221 E.04061
G1 X110.227 Y124.616 E.03366
G1 X109.347 Y123.906 E.03545
G1 X108.079 Y122.636 E.05627
G1 X107.022 Y121.262 E.05435
G1 X106.174 Y119.814 E.05261
G1 X105.668 Y118.698 E.03842
G1 X105.13 Y117.055 E.05421
G1 X104.817 Y115.462 E.0509
G1 X104.693 Y113.659 E.05667
G1 X104.705 Y99.791 E.43482
G1 X105.023 Y97.39 E.07594
G1 X105.674 Y95.287 E.06903
G1 X106.44 Y93.684 E.0557
G1 X107.352 Y92.271 E.05273
G1 X107.947 Y91.591 E.02833
M73 Q3 S19
M204 S1000
G1 X108.21 Y91.802 F10800
M204 S800
G1 F1200
G1 X108.342 Y91.636 E.00665
G1 X109.15 Y90.788 E.03673
G1 X110.024 Y90.017 E.03654
G1 X111.969 Y88.714 E.0734
G1 X112.946 Y88.228 E.03421
M73 P3 R19
G1 X114.92 Y87.527 E.06568
G1 X116.689 Y87.177 E.05654
G1 X118.278 Y87.071 E.04993
G1 X132.795 Y87.121 E.45517
G1 X134.933 Y87.488 E.06802
G1 X136.675 Y88.066 E.05755
G1 X138.638 Y89.069 E.06912
G1 X140.346 Y90.327 E.06651
G1 X141.665 Y91.645 E.05846
G1 X142.978 Y93.437 E.06965
G1 X143.509 Y94.391 E.03423
G1 X144.323 Y96.402 E.06802
G1 X144.738 Y98.121 E.05545
G1 X144.92 Y99.863 E.05492
G1 X144.918 Y114.203 E.44962
G1 X144.74 Y115.865 E.05241
G1 X144.351 Y117.507 E.05291
G1 X143.755 Y119.093 E.05312
G1 X143.261 Y120.076 E.03449
G1 X142.331 Y121.525 E.05398
G1 X141.574 Y122.459 E.0377
G1 X140.406 Y123.621 E.05166
G1 X139.108 Y124.627 E.05149
G1 X138.063 Y125.269 E.03845
G1 X136.574 Y125.976 E.05168
G1 X134.991 Y126.498 E.05226
G1 X133.894 Y126.735 E.03519
G1 X131.656 Y126.93 E.07044
G1 X117.737 Y126.915 E.43642
G1 X116.123 Y126.738 E.05091
G1 X114.549 Y126.368 E.0507
G1 X113.422 Y125.974 E.03743
G1 X111.872 Y125.233 E.05387
G1 X110.458 Y124.318 E.05281
G1 X109.59 Y123.617 E.03498
G1 X108.366 Y122.391 E.05432
G1 X107.336 Y121.054 E.05292
G1 X106.514 Y119.651 E.05098
G1 X106.015 Y118.549 E.03793
G1 X105.496 Y116.965 E.05226
G1 X105.19 Y115.404 E.04988
G1 X105.07 Y113.655 E.05497
G1 X105.124 Y99.179 E.45389
G1 X105.389 Y97.481 E.05388
G1 X105.66 Y96.455 E.03327
G1 X106.027 Y95.42 E.03443
G1 X106.767 Y93.873 E.05377
G1 X107.651 Y92.501 E.05117
G1 X108.173 Y91.849 E.02619
M204 S1000
G1 X108.483 Y92.079 F10800
M204 S800
G1 F1200
G1 X108.632 Y91.878 E.00784
G1 X110.258 Y90.312 E.07078
G1 X112.143 Y89.049 E.07114
G1 X113.094 Y88.575 E.03332
G1 X115.026 Y87.889 E.06428
G1 X116.746 Y87.55 E.05497
G1 X118.29 Y87.448 E.04852
G1 X131.706 Y87.448 E.42065
G1 X133.808 Y87.633 E.06616
G1 X135.853 Y88.158 E.0662
G1 X137.509 Y88.863 E.05643
G1 X139.325 Y89.99 E.06701
G1 X140.631 Y91.1 E.05374
G1 X142.061 Y92.744 E.06832
G1 X143.168 Y94.554 E.06652
G1 X143.965 Y96.523 E.0666
G1 X144.365 Y98.178 E.05339
G1 X144.543 Y99.881 E.05369
G1 X144.541 Y114.196 E.44884
G1 X144.367 Y115.808 E.05084
G1 X143.993 Y117.389 E.05094
G1 X143.415 Y118.93 E.0516
G1 X142.935 Y119.887 E.03357
G1 X142.034 Y121.293 E.05236
G1 X141.286 Y122.215 E.03723
G1 X140.153 Y123.341 E.05008
G1 X138.903 Y124.31 E.04959
G1 X137.873 Y124.943 E.03791
G1 X136.441 Y125.622 E.04969
G1 X134.904 Y126.13 E.05076
G1 X133.822 Y126.365 E.03472
G1 X131.652 Y126.553 E.06829
G1 X117.761 Y126.538 E.43554
G1 X116.191 Y126.367 E.04952
G1 X114.652 Y126.005 E.04957
G1 X112.585 Y125.184 E.06973
G1 X111.528 Y124.59 E.03802
G1 X109.833 Y123.329 E.06624
G1 X109.064 Y122.594 E.03335
G1 X108.265 Y121.681 E.03804
M73 Q4 S19
G1 X107.651 Y120.846 E.0325
G1 X106.854 Y119.489 E.04934
G1 X106.027 Y117.454 E.06887
G1 X105.721 Y116.27 E.03834
M73 P4 R19
G1 X105.491 Y114.691 E.05003
G1 X105.447 Y113.652 E.03261
G1 X105.458 Y99.829 E.43341
G1 X105.755 Y97.571 E.07141
G1 X106.38 Y95.553 E.06624
G1 X106.816 Y94.585 E.03329
G1 X107.408 Y93.53 E.03793
G1 X108.447 Y92.127 E.05474
M204 S1000
G1 X108.733 Y92.355 F10800
M204 S800
G1 F1200
G1 X108.921 Y92.12 E.00944
G1 X110.493 Y90.607 E.06841
G1 X112.317 Y89.383 E.06887
G1 X113.241 Y88.922 E.03238
G1 X115.132 Y88.251 E.06291
G1 X116.802 Y87.923 E.05336
G1 X118.302 Y87.825 E.04713
G1 X132.714 Y87.871 E.45188
G1 X134.745 Y88.218 E.0646
G1 X136.372 Y88.757 E.05374
G1 X138.241 Y89.71 E.06578
G1 X139.864 Y90.907 E.06323
G1 X141.086 Y92.128 E.05416
G1 X142.327 Y93.818 E.06574
G1 X142.835 Y94.731 E.03276
G1 X143.608 Y96.644 E.06469
G1 X143.995 Y98.249 E.05177
G1 X144.167 Y99.9 E.05205
G1 X144.164 Y114.177 E.44765
G1 X143.994 Y115.752 E.04967
G1 X143.632 Y117.282 E.0493
G1 X143.07 Y118.777 E.05008
G1 X142.602 Y119.711 E.03276
G1 X141.729 Y121.072 E.0507
G1 X141.009 Y121.96 E.03584
G1 X139.908 Y123.055 E.04869
G1 X138.686 Y124.001 E.04845
G1 X137.696 Y124.61 E.03644
G1 X136.298 Y125.274 E.04853
G1 X134.806 Y125.766 E.04926
G1 X133.75 Y125.995 E.03388
G1 X131.648 Y126.176 E.06615
G1 X117.785 Y126.162 E.43466
G1 X116.26 Y125.996 E.0481
G1 X114.754 Y125.642 E.04851
G1 X113.687 Y125.268 E.03545
G1 X112.249 Y124.579 E.05
G1 X110.919 Y123.721 E.04963
G1 X110.076 Y123.041 E.03396
G1 X108.939 Y121.901 E.05048
G1 X107.965 Y120.637 E.05003
G1 X107.194 Y119.326 E.04769
G1 X106.708 Y118.253 E.03693
G1 X106.228 Y116.784 E.04846
G1 X105.935 Y115.288 E.0478
G1 X105.824 Y113.648 E.05154
G1 X105.874 Y99.264 E.451
G1 X106.002 Y98.272 E.03136
G1 X106.377 Y96.692 E.05092
G1 X106.733 Y95.686 E.03346
G1 X107.421 Y94.249 E.04995
G1 X108.25 Y92.96 E.04805
G1 X108.696 Y92.402 E.0224
M204 S1000
G1 X109.009 Y92.634 F10800
M204 S800
G1 F1200
G1 X109.211 Y92.361 E.01065
G1 X110.728 Y90.902 E.06599
G1 X112.492 Y89.718 E.06661
G1 X113.389 Y89.269 E.03145
G1 X115.238 Y88.613 E.06151
G1 X116.847 Y88.297 E.05141
G1 X118.314 Y88.202 E.04609
G1 X131.68 Y88.202 E.41908
G1 X133.681 Y88.376 E.06298
G1 X135.622 Y88.877 E.06285
G1 X137.152 Y89.528 E.05213
G1 X138.876 Y90.596 E.06359
G1 X140.093 Y91.629 E.05005
G1 X141.443 Y93.178 E.06442
G1 X142.495 Y94.894 E.06311
G1 X143.251 Y96.764 E.06324
G1 X143.624 Y98.32 E.05017
G1 X143.79 Y99.918 E.05037
G1 X143.787 Y114.157 E.44645
G1 X143.624 Y115.681 E.04806
M73 P4 R18
G1 X143.27 Y117.174 E.04811
G1 X142.725 Y118.625 E.0486
G1 X142.268 Y119.534 E.0319
G1 X141.424 Y120.85 E.04902
G1 X140.731 Y121.705 E.03451
G1 X139.656 Y122.774 E.04753
G1 X138.468 Y123.693 E.04709
G1 X137.519 Y124.277 E.03494
G1 X136.155 Y124.925 E.04735
G1 X134.708 Y125.402 E.04777
G1 X133.678 Y125.624 E.03304
G1 X131.644 Y125.799 E.06401
G1 X117.809 Y125.786 E.43379
M73 Q5 S19
G1 X116.319 Y125.624 E.04699
M73 P5 R18
G1 X114.857 Y125.28 E.04709
G1 X112.927 Y124.512 E.06513
G1 X111.942 Y123.96 E.0354
G1 X110.319 Y122.752 E.06344
G1 X108.865 Y121.225 E.06611
G1 X108.28 Y120.429 E.03097
M73 Q5 S18
G1 X107.535 Y119.163 E.04606
G1 X107.061 Y118.12 E.03592
G1 X106.462 Y116.132 E.0651
G1 X106.242 Y114.622 E.04784
G1 X106.201 Y113.644 E.03069
G1 X106.212 Y99.866 E.432
G1 X106.488 Y97.751 E.06688
G1 X107.086 Y95.82 E.06338
G1 X107.488 Y94.927 E.03071
G1 X108.039 Y93.943 E.03536
G1 X108.973 Y92.682 E.0492
M204 S1000
G1 X109.256 Y92.908 F10800
M204 S800
G1 F1200
G1 X109.5 Y92.603 E.01225
G1 X110.963 Y91.197 E.06362
G1 X112.666 Y90.052 E.06434
G1 X113.537 Y89.616 E.03054
G1 X115.343 Y88.975 E.06009
G1 X116.892 Y88.672 E.04949
G1 X118.326 Y88.579 E.04506
G1 X132.649 Y88.623 E.44909
G1 X134.572 Y88.952 E.06117
G1 X136.071 Y89.448 E.04951
G1 X137.831 Y90.343 E.06191
G1 X139.381 Y91.487 E.0604
G1 X140.508 Y92.612 E.04993
G1 X141.684 Y94.212 E.06226
G1 X142.562 Y95.953 E.06114
G1 X142.893 Y96.885 E.03101
G1 X143.254 Y98.391 E.04856
G1 X143.413 Y99.923 E.04829
G1 X143.411 Y114.138 E.4457
G1 X143.254 Y115.61 E.04642
G1 X142.909 Y117.067 E.04695
G1 X142.38 Y118.473 E.0471
G1 X141.935 Y119.358 E.03106
G1 X141.119 Y120.628 E.04733
G1 X140.453 Y121.45 E.03317
G1 X139.41 Y122.488 E.04614
G1 X138.251 Y123.385 E.04595
G1 X137.342 Y123.944 E.03346
G1 X136.012 Y124.576 E.04617
G1 X134.61 Y125.038 E.04628
G1 X133.623 Y125.251 E.03166
G1 X131.64 Y125.422 E.06241
G1 X117.833 Y125.409 E.43291
G1 X116.378 Y125.252 E.04589
G1 X114.96 Y124.917 E.04568
G1 X113.953 Y124.562 E.03348
G1 X112.625 Y123.925 E.04618
G1 X111.381 Y123.124 E.04639
G1 X110.562 Y122.464 E.03298
G1 X109.512 Y121.41 E.04665
G1 X108.594 Y120.22 E.04712
G1 X107.875 Y118.999 E.04443
G1 X107.414 Y117.986 E.0349
G1 X106.96 Y116.603 E.04564
G1 X106.68 Y115.172 E.04572
G1 X106.578 Y113.64 E.04814
G1 X106.623 Y99.348 E.44812
G1 X106.748 Y98.381 E.03057
